X: 26106
T: McGettrick's
R: reel
M: 4/4
K: Gmajor
G3 A BA A2|BGAF G2 FG|A2 Ac BA A2|1 BGAF DEFD:|2 BGAF D3 e||
f2 fe fded|^cA A2 cded|f2 eg fded|^cABc d3 e|
f3 a gfed|^cA A2 cded|f2 af gfed|^cABc dAFD||

